X: 105
T:Russian's Dance. JaW.105
M:2/4
L:1/16
Q:100
S:James Winder Ms, Lancashire, 1835-41
R:Country Dance
O:England
A:Wyresdale,Lancashire
H:1/16
Z:vmp.Chris Partington, Aug 2004
K:C
(Gc)|e2(Gc) e2(Gc)|(fg)(ef) d2GB)|d2(GB) d2(GB)|(ef)(de) c2:|!
|:(gf)|e2(ed) c2c'b|(a^g)(ag) (a=g)(fe)|\
(de)(cd) (Bd)(gB|{d}(cB)(cd) c2:|]
